X: 12
T:Over Ye Moor to Betty. JBa.12
M:4/4
L:1/8
Q:160
S:Joseph Barnes MS,Carlisle,1762.
R:reel
O:England
A:Carlisle
Z:vmp.C.Graebe.
K:G major
"No key/time sig in MS"  DG BG cA (cB) | Fc AB c2 A-A |\
 DG BG G-G fg | (gf) e2 dc B2 G2-G2 ||!
 d2 dg BG (cB) | c2 cf AF (cB) |\
GB Ac BG g2 | (gf) e2 dc B2 G2-G2 |]
